Catalina-dark/symbolic/places/folder-documents-symbolic.svg

<svg xmlns="http://www.w3.org/2000/svg" width="36" height="36" version="1.1">
<g>
<path d="m2 7v6 22h12 10v-16-1.7988l-10.201-10.201h-1.7988-10zm2 2h5.9375c1.1852 0 2.0625 1.0416 2.0625 2.375v7.625h8.0352c0.9857 0 1.9648 1.2186 1.9648 2.1191v11.881h-8-10v-19.799-4.2012zm10 1.2012 6.7988 6.7988h-6.7988v-6.7988z" fill="#edf4f7" fill-opacity=".85932" />
<path d="m12 1v6h1.7988l0.20117 0.20117v-4.2012h5.9375c1.1852 0 2.0625 1.0416 2.0625 2.375v7.625h8.0344c0.9857 0 1.9656 1.2177 1.9656 2.1182v11.882h-8v2h10v-16-1.7988l-10.201-10.201h-1.7988zm12 3.2012 6.7988 6.7988h-6.7988z" fill="#edf4f7" fill-opacity=".85932" />
<path d="m4 9v24h18v-14h-10v-10h-8z" fill="#e8f1f5" fill-opacity=".58935" fill-rule="evenodd" />
<path d="m14 3v4.2012l10 10v1.7988 8h8v-11.881c0-0.90055-0.97915-2.1191-1.9648-2.1191h-8.0352v-7.625c0-1.3334-0.87731-2.375-2.0625-2.375h-5.9375z" fill="#e8f1f5" fill-opacity=".56654" fill-rule="evenodd" />
</g>
</svg>

<?xml version="1.0" encoding="UTF-8" standalone="no"?>
<svg
   width="16"
   height="16"
   version="1.1"
   id="svg4"
   sodipodi:docname="folder-documents-symbolic.svg"
   inkscape:version="1.4.2 (ebf0e94, 2025-05-08)"
   xmlns:inkscape="http://www.inkscape.org/namespaces/inkscape"
   xmlns:sodipodi="http://sodipodi.sourceforge.net/DTD/sodipodi-0.dtd"
   xmlns="http://www.w3.org/2000/svg"
   xmlns:svg="http://www.w3.org/2000/svg">
  <defs
     id="defs4" />
  <sodipodi:namedview
     id="namedview4"
     pagecolor="#ffffff"
     bordercolor="#000000"
     borderopacity="0.25"
     inkscape:showpageshadow="2"
     inkscape:pageopacity="0.0"
     inkscape:pagecheckerboard="0"
     inkscape:deskcolor="#d1d1d1"
     inkscape:zoom="21.138889"
     inkscape:cx="18"
     inkscape:cy="18"
     inkscape:window-width="1920"
     inkscape:window-height="972"
     inkscape:window-x="0"
     inkscape:window-y="0"
     inkscape:window-maximized="1"
     inkscape:current-layer="svg4" />
  <g
     id="g4"
     transform="matrix(0.47058824,0,0,0.47058824,-0.47058126,-0.47058832)">
    <path
       d="m 2,7 v 6 22 H 14 24 V 19 17.2012 L 13.799,7.0002 h -1.7988 -10 z M 4,9 H 9.9375 C 11.1227,9 12,10.0416 12,11.375 V 19 h 8.0352 C 21.0209,19 22,20.2186 22,21.1191 v 11.881 H 14 4 V 13.2011 8.9999 Z M 14,10.2012 20.7988,17 H 14 Z"
       fill="#edf4f7"
       fill-opacity="0.85932"
       id="path1" />
    <path
       d="m 12,1 v 6 h 1.7988 l 0.20117,0.20117 v -4.2012 h 5.9375 c 1.1852,0 2.0625,1.0416 2.0625,2.375 v 7.625 h 8.0344 c 0.9857,0 1.9656,1.2177 1.9656,2.1182 v 11.882 h -8 v 2 h 10 v -16 -1.7988 l -10.201,-10.201 h -1.7988 z M 24,4.2012 30.7988,11 H 24 Z"
       fill="#edf4f7"
       fill-opacity="0.85932"
       id="path2" />
    <path
       d="M 4,9 V 33 H 22 V 19 H 12 V 9 Z"
       fill="#e8f1f5"
       fill-opacity="0.58935"
       fill-rule="evenodd"
       id="path3" />
    <path
       d="m 14,3 v 4.2012 l 10,10 V 19 27 h 8 V 15.119 c 0,-0.90055 -0.97915,-2.1191 -1.9648,-2.1191 H 22 V 5.3749 C 22,4.0415 21.12269,2.9999 19.9375,2.9999 H 14 Z"
       fill="#e8f1f5"
       fill-opacity="0.56654"
       fill-rule="evenodd"
       id="path4" />
  </g>
</svg>
